resources/wolfram.svg

<svg height="1024" viewBox="0 0 1024 1024" width="1024" xmlns="http://www.w3.org/2000/svg"><g fill-rule="evenodd"><path d="m1010 670.18-212.06 45.27 21.55 210.73-198.59-85.15-109.4 182.97-109.4-182.97-198.59 85.15 21.55-210.73-212.06-45.27 144.43-158.18-144.43-158.18 212.06-45.27-21.55-210.73 198.59 85.15 109.4-182.97 109.4 182.97 198.59-85.15-21.55 211 212.06 45-144.43 158.18" fill="#f16850"/><path d="m321.8 253.57-118.29-155.75 198.59 85.15 109.4 136.63" fill="#fd694f"/><path d="m327.19 450.29-169.76 61.71-144.43-158.18 212.06-45.27" fill="#ff3413"/><path d="m327.19 450.29-102.13-141.74-21.55-210.73 118.29 155.75" fill="#dc1d23"/><path d="m511.5 319.6-109.4-136.63 109.4-182.97 109.4 182.97" fill="#ff9281"/><path d="m695.81 450.29 102.13-141.74 212.06 45.27-144.43 158.18" fill="#ff8b79"/><path d="m701.2 253.57 118.56-155.75-21.82 210.73-102.13 141.74" fill="#fd694f"/><path d="m511.5 319.6 109.4-136.63 198.86-85.15-118.56 155.75" fill="#ef5240"/><path d="m695.81 450.29 169.76 61.71 144.43 158.18-191.32-63.86" fill="#ff482c"/><path d="m204.32 606.32-191.32 63.86 144.43-158.18 169.76-61.71" fill="#ec2101"/><path d="m625.48 661.83-4.58 179.2-109.4 182.97v-199.68" fill="#d21c22"/><path d="m1010 670.18-212.06 45.27-172.46-53.62 193.2-55.51" fill="#c90901"/><path d="m625.48 661.83 172.46 53.62 21.55 210.73-198.59-85.15" fill="#ec2101"/><path d="m397.52 661.83-172.46 53.35-212.06-45 191.32-63.86" fill="#b6171e"/><path d="m511.5 824.32v199.68l-109.4-182.97-4.58-179.2" fill="#b4151b"/><path d="m397.52 661.83 4.58 179.2-198.59 85.15 21.55-211" fill="#d21c22"/><path d="m511.5 510.92v-191.32l189.7-66.03-5.39 196.72" fill="#e63320"/><path d="m511.5 510.92-184.31-60.63-5.39-196.72 189.7 66.03" fill="#ff4527"/><path d="m511.5 510.92 113.98 150.91-113.98 162.49-113.98-162.49" fill="#ff9281"/><path d="m695.81 450.29 122.87 156.03-193.2 55.51-113.98-150.91" fill="#fd684d"/><path d="m511.5 510.92-113.98 150.91-193.2-55.51 122.87-156.03" fill="#fd745c"/></g></svg>

<svg xmlns="http://www.w3.org/2000/svg" width="1024" height="1024"><g fill-rule="evenodd"><path fill="#f16850" d="m1010 670.18-212.06 45.27 21.55 210.73-198.59-85.15L511.5 1024 402.1 841.03l-198.59 85.15 21.55-210.73L13 670.18 157.43 512 13 353.82l212.06-45.27-21.55-210.73 198.59 85.15L511.5 0l109.4 182.97 198.59-85.15-21.55 211 212.06 45L865.57 512"/><path fill="#fd694f" d="M321.8 253.57 203.51 97.82l198.59 85.15L511.5 319.6"/><path fill="#ff3413" d="M327.19 450.29 157.43 512 13 353.82l212.06-45.27"/><path fill="#dc1d23" d="M327.19 450.29 225.06 308.55 203.51 97.82 321.8 253.57"/><path fill="#ff9281" d="M511.5 319.6 402.1 182.97 511.5 0l109.4 182.97"/><path fill="#ff8b79" d="m695.81 450.29 102.13-141.74L1010 353.82 865.57 512"/><path fill="#fd694f" d="M701.2 253.57 819.76 97.82l-21.82 210.73-102.13 141.74"/><path fill="#ef5240" d="m511.5 319.6 109.4-136.63 198.86-85.15L701.2 253.57"/><path fill="#ff482c" d="M695.81 450.29 865.57 512 1010 670.18l-191.32-63.86"/><path fill="#ec2101" d="M204.32 606.32 13 670.18 157.43 512l169.76-61.71"/><path fill="#d21c22" d="m625.48 661.83-4.58 179.2L511.5 1024V824.32"/><path fill="#c90901" d="m1010 670.18-212.06 45.27-172.46-53.62 193.2-55.51"/><path fill="#ec2101" d="m625.48 661.83 172.46 53.62 21.55 210.73-198.59-85.15"/><path fill="#b6171e" d="m397.52 661.83-172.46 53.35-212.06-45 191.32-63.86"/><path fill="#b4151b" d="M511.5 824.32V1024L402.1 841.03l-4.58-179.2"/><path fill="#d21c22" d="m397.52 661.83 4.58 179.2-198.59 85.15 21.55-211"/><path fill="#e63320" d="M511.5 510.92V319.6l189.7-66.03-5.39 196.72"/><path fill="#ff4527" d="m511.5 510.92-184.31-60.63-5.39-196.72 189.7 66.03"/><path fill="#ff9281" d="m511.5 510.92 113.98 150.91L511.5 824.32 397.52 661.83"/><path fill="#fd684d" d="m695.81 450.29 122.87 156.03-193.2 55.51L511.5 510.92"/><path fill="#fd745c" d="M511.5 510.92 397.52 661.83l-193.2-55.51 122.87-156.03"/></g></svg>
